X: 461
T: Annie Laurie
S: Viola Ruth "Pioneer Western Folk Tunes" 1948 p.46 #1
R: waltz
Z: 2019 John Chambers <jc:trillian.mit.edu>
M: 3/4
L: 1/4
K: D
(Mf/Me/) |\
(d2Md) | d'2c' | (c'b2-) | (b2Mb) |\
(a2f) | (e2d) | e3- | e2(f/e/) |\
(d2Md) | (d'2c') |
(c'b2) | (b2Mb) |\
(a2f) | (e2Md) | d3- | d2 ||\
"^ gliss"a |\
(d'2Md') | (e'2Me') | f'3- | f'2"^ gliss"a |\
(d'2Md') |
(e'2Me') | f'3- | f'2-(Mf'/e'/) |\
(d'2c') | b2(d'/b/) | (af2-) | f2(f/e/) |\
dd'>f | (e2Md) | d3 | Hd'3 |]
%%text Favorite Songs of my father & mother.
